images/Icon2.svg

<svg width="264" height="112" viewBox="0 0 264 112" fill="none" xmlns="http://www.w3.org/2000/svg">
<rect width="264" height="112" rx="4" fill="#F4F4FD"/>
<g clip-path="url(#clip0_297080_1785)">
<path d="M162.593 54.6025C162.59 37.6978 148.883 23.9966 131.978 24C115.073 24.0034 101.372 37.7109 101.375 54.6157C101.378 67.9316 109.989 79.7178 122.674 83.7681C122.795 83.8062 122.921 83.8257 123.047 83.8252C123.289 83.8247 123.525 83.7603 123.732 83.6377C124.002 83.478 124.204 83.2241 124.299 82.9248L132.029 58.4248C134.142 58.4141 135.846 56.6919 135.835 54.5791C135.824 52.4658 134.103 50.7617 131.989 50.7725C131.421 50.7749 130.86 50.9058 130.349 51.1553L120.137 40.9419C119.63 40.4526 118.823 40.4668 118.334 40.9731C117.856 41.4678 117.856 42.251 118.334 42.7456L128.541 52.9639C127.757 54.5625 128.205 56.4922 129.613 57.582L122.248 80.9277C107.692 75.5659 100.239 59.4199 105.601 44.8643C110.963 30.3086 127.109 22.8555 141.665 28.2173C156.22 33.5791 163.673 49.7256 158.312 64.2808C155.692 71.3921 150.31 77.1431 143.387 80.2275L142.591 76.479C142.446 75.79 141.769 75.3496 141.08 75.4956C140.862 75.542 140.661 75.6441 140.495 75.792L132.821 82.6431C132.294 83.1113 132.248 83.9175 132.716 84.4439C132.869 84.6148 133.064 84.7417 133.283 84.8115L143.08 87.9385C143.75 88.1538 144.469 87.7852 144.684 87.1143C144.752 86.9024 144.764 86.6768 144.718 86.459L143.936 82.7808C155.264 78.0049 162.62 66.8965 162.593 54.6025ZM131.984 53.3272C132.688 53.3272 133.26 53.8984 133.26 54.6025C133.26 55.3071 132.688 55.8779 131.984 55.8779C131.28 55.8779 130.709 55.3071 130.709 54.6025C130.709 53.8984 131.28 53.3272 131.984 53.3272ZM136.185 83.0552L140.553 79.1587L141.759 84.8394L136.185 83.0552Z" fill="#2E2F42"/>
<path d="M130.709 30.3701V32.9209C130.709 33.6255 131.28 34.1963 131.984 34.1963C132.688 34.1963 133.26 33.6255 133.26 32.9209V30.3701C133.26 29.666 132.688 29.0947 131.984 29.0947C131.28 29.0947 130.709 29.666 130.709 30.3701Z" fill="#4D5AE5"/>
<path d="M107.752 53.3271C107.047 53.3271 106.477 53.8984 106.477 54.6025C106.477 55.3071 107.047 55.8779 107.752 55.8779H110.303C111.007 55.8779 111.578 55.3071 111.578 54.6025C111.578 53.8984 111.007 53.3271 110.303 53.3271H107.752Z" fill="#4D5AE5"/>
<path d="M156.216 55.8779C156.921 55.8779 157.492 55.3071 157.492 54.6025C157.492 53.8984 156.921 53.3271 156.216 53.3271H153.665C152.961 53.3271 152.39 53.8984 152.39 54.6025C152.39 55.3071 152.961 55.8779 153.665 55.8779H156.216Z" fill="#4D5AE5"/>
</g>
<defs>
<clipPath id="clip0_297080_1785">
<rect width="64" height="64" fill="white" transform="translate(100 24)"/>
</clipPath>
</defs>
</svg>

<svg xmlns="http://www.w3.org/2000/svg" width="264" height="112" fill="none"><rect width="264" height="112" fill="#F4F4FD" rx="4"/><g clip-path="url(#a)"><path fill="#2E2F42" d="M162.593 54.602c-.003-16.904-13.71-30.605-30.615-30.602-16.905.003-30.606 13.71-30.603 30.616a30.61 30.61 0 0 0 21.299 29.152c.121.038.247.058.373.057.242 0 .478-.065.685-.187.27-.16.472-.414.567-.713l7.73-24.5a3.826 3.826 0 1 0-.04-7.652 3.776 3.776 0 0 0-1.64.382l-10.212-10.213a1.275 1.275 0 0 0-1.803 1.804l10.207 10.218a3.751 3.751 0 0 0 1.072 4.618l-7.365 23.346c-14.556-5.362-22.009-21.508-16.647-36.064 5.362-14.555 21.508-22.008 36.064-16.647 14.555 5.362 22.008 21.509 16.647 36.064a28.087 28.087 0 0 1-14.925 15.947l-.796-3.749a1.274 1.274 0 0 0-2.096-.687l-7.674 6.851a1.275 1.275 0 0 0 .462 2.168l9.797 3.127a1.275 1.275 0 0 0 1.638-1.479l-.782-3.678a30.508 30.508 0 0 0 18.657-28.179Zm-30.609-1.275a1.276 1.276 0 1 1 0 2.553 1.276 1.276 0 0 1 0-2.553Zm4.201 29.728 4.368-3.896 1.206 5.68-5.574-1.784Z"/><path fill="#4D5AE5" d="M130.709 30.37v2.55a1.275 1.275 0 1 0 2.551 0v-2.55a1.276 1.276 0 0 0-2.551 0ZM107.752 53.327a1.275 1.275 0 1 0 0 2.55h2.551a1.275 1.275 0 0 0 0-2.55h-2.551ZM156.216 55.878a1.275 1.275 0 1 0 0-2.55h-2.551a1.275 1.275 0 0 0 0 2.55h2.551Z"/></g><defs><clipPath id="a"><path fill="#fff" d="M100 24h64v64h-64z"/></clipPath></defs></svg>
